X: 06043
T: LIZA HILL
C: Bob McQuillen 26 Jan 82
B: Bob's Note Book 6 #43
%R: reel
Z: 2021 John Chambers <jc:trillian.mit.edu>
M: C	% Actually, there's no time signature in this tune.
L: 1/8
K: D
A,B, \
| DA,DF E2FE | DEFA B2FD | FABd B2dB | ABAF BAFE |\
| D2DF EDFE | DEFA B2FA | B2Bd edBA | B2d2 d2 :|
|: AB \
| defe f2fa | gfed f2fa | g2gf edfe | d2dB AFAB |\
| defe fefe | dBBA B2dB | AFBd AFBA | F2D2 D2 :|
%%begintext align
%% Liza never misses
%% coming to the Monday Night dances with her
%% guitar and her really nice big brown fuzzy
%% dog - She once gave me a fire-breathing
%% dragon for my birthday! Thanks, Liza!
%%endtext

%%sep 1 1 500

%%sep 1 1 500

